**kern	**kern	**dynam
*part1	*part1	*part1
*staff2	*staff1	*
*I"Piano	*	*
*clefF4	*clefG2	*
*k[b-e-a-]	*k[b-e-a-]	*
=1	=1	=1
*	*^	*
!	!LO:TX:b:i:t=dim.	!	!
4EE- 4E-	8gL	4B- 4e-	.
.	8a-	.	.
8GG 8G	8gJ	8B- 8e-	.
=	=	=	=
4BB- 4A-	8fL	4B- 4e-	.
.	8g	.	.
8BBB- 8BB-	8fJ)	8A- 8d	.
=	=	=	=
*^	*	*	*
8E-L)	4.EE-	4.e-	4.G 4.B-	.
8BB-	.	.	.	.
8E-J	.	.	.	.
*v	*v	*	*	*
*	*v	*v	*
=	=	=
*	*8va	*
*^	*	*
(8BB-L	[4.EE-	8g'L 8b- 8ee-	p
8E-	.	8cc' 8ff 8aa-	.
8BB-J	.	8a-'J 8dd 8ff	.
=	=	=	=
8E-L	4.EE-]	4.b- 4.ee- 4.gg	.
8BB-	.	.	.
8E-J)	.	.	.
=	=	=	=
(8BB-L	[4.EE-	8g'L 8b- 8ee-	.
8E-	.	8cc' 8ff 8aa-	.
8BB-J	.	8a-'J 8dd 8ff	.
=	=	=	=
8E-L	4.EE-]	4.b- 4.ee- 4.gg	.
8BB-	.	.	.
8E-J)	.	.	.
=	=	=	=
(8BB-L	[4.EE-	(4a- 4cc 4ff	.
8E-	.	.	.
8BB-J	.	8cc) 8ff 8aa-	.
*v	*v	*	*
=	=	=
*-	*-	*-
!!!system-decoration: {(s1,s2)}
